3D-Portfolio/src/assets/github.svg

<?xml version="1.0" encoding="utf-8"?>
<!-- Uploaded to: SVG Repo, www.svgrepo.com, Generator: SVG Repo Mixer Tools -->
<svg width="800px" height="800px" viewBox="0 0 48 48" fill="none" xmlns="http://www.w3.org/2000/svg">
  <circle cx="24" cy="24" r="20" fill="#FFFFFF" />
  <path
    d="M6.81348 34.235C9.24811 38.3138 13.0939 41.4526 17.6772 42.9784C18.6779 43.1614 19.0425 42.5438 19.0425 42.0134C19.0425 41.7938 19.0388 41.4058 19.0339 40.8866C19.0282 40.2852 19.0208 39.5079 19.0155 38.6124C13.4524 39.8206 12.2787 35.931 12.2787 35.931C11.3689 33.6215 10.0576 33.0064 10.0576 33.0064C8.2417 31.7651 10.1951 31.7896 10.1951 31.7896C12.2025 31.9321 13.2584 33.8511 13.2584 33.8511C15.0424 36.9071 17.94 36.0243 19.0794 35.5135C19.2611 34.2207 19.7767 33.3391 20.3489 32.8394C15.908 32.3348 11.2387 30.6183 11.2387 22.9545C11.2387 20.7715 12.0184 18.9863 13.2977 17.5879C13.0914 17.082 12.4051 15.0488 13.4929 12.2949C13.4929 12.2949 15.1725 11.7571 18.9934 14.3453C20.5883 13.9021 22.2998 13.6798 24.0003 13.6725C25.6983 13.6798 27.4099 13.9021 29.0072 14.3453C32.8256 11.7571 34.5016 12.2949 34.5016 12.2949C35.5931 15.0488 34.9067 17.082 34.7005 17.5879C35.9823 18.9863 36.757 20.7715 36.757 22.9545C36.757 30.638 32.0804 32.3286 27.6247 32.8234C28.343 33.441 28.9827 34.6614 28.9827 36.5277C28.9827 38.3152 28.9717 39.8722 28.9644 40.9035C28.9608 41.4143 28.9581 41.7962 28.9581 42.0134C28.9581 42.5487 29.3178 43.1712 30.3332 42.976C33.9844 41.7572 37.1671 39.5154 39.5403 36.5903C35.8734 41.1108 30.274 44 23.9997 44C16.6943 44 10.3038 40.0832 6.81348 34.235Z"
    fill="#100d25" />
</svg>

<svg width="800" height="800" viewBox="0 0 48 48" fill="none" xmlns="http://www.w3.org/2000/svg"><circle cx="24" cy="24" r="20" fill="#FFF"/><path d="M6.813 34.235a20.056 20.056 0 0 0 10.864 8.743c1 .183 1.366-.434 1.366-.965 0-.22-.004-.607-.01-1.126-.005-.602-.012-1.38-.018-2.275-5.563 1.209-6.736-2.681-6.736-2.681-.91-2.31-2.221-2.925-2.221-2.925-1.816-1.24.137-1.216.137-1.216 2.008.142 3.063 2.061 3.063 2.061 1.784 3.056 4.682 2.173 5.821 1.663.182-1.293.698-2.175 1.27-2.675-4.441-.504-9.11-2.22-9.11-9.884 0-2.183.78-3.969 2.059-5.367-.207-.506-.893-2.54.195-5.293 0 0 1.68-.538 5.5 2.05A19.154 19.154 0 0 1 24 13.672c1.698.008 3.41.23 5.007.673 3.819-2.588 5.495-2.05 5.495-2.05 1.091 2.754.405 4.787.198 5.293 1.282 1.398 2.057 3.183 2.057 5.366 0 7.684-4.677 9.375-9.132 9.87.718.617 1.358 1.837 1.358 3.704 0 1.787-.011 3.344-.019 4.376-.003.51-.006.892-.006 1.11 0 .535.36 1.157 1.375.962a20.043 20.043 0 0 0 9.207-6.386C35.873 41.11 30.274 44 24 44c-7.306 0-13.696-3.917-17.187-9.765Z" fill="#100d25"/></svg>
